X:792
T:Ballydesmond Polka 3, The
S:Sessions
Z:Nigel Gatherer
M:2/4
L:1/8
K:Am
B | c2 B2       | A2 G>A   | Bd ed | g3 d   | 
    ea ge       | dB GA/B/ | ce dB | A2 A  :|
z | ea ag/e/    | dg g>d   | ea ab | g2 ed  |
    ea g/a/g/e/ | dB GA/B/ | ce dB | A2 A :|]
<end>
<start>
